synths/sEOS.svg

<svg width="480" height="480" viewBox="0 0 480 480" fill="none" xmlns="http://www.w3.org/2000/svg"><mask id="mask0-502637" maskUnits="userSpaceOnUse" x="0" y="0" width="480" height="480"><circle cx="240" cy="240" r="240" fill="url(#paint0_linear-730083)"/></mask><g mask="url(#mask0-502637)"><circle cx="240" cy="240" r="240" fill="#31D8A4"/><circle cx="240" cy="240" r="208" fill="#fff"/></g><circle cx="240" cy="240" r="184" fill="#0E052F"/><path d="M240 424c101.62 0 184-82.38 184-184S341.62 56 240 56 56 138.38 56 240s82.38 184 184 184z" fill="#000"/><path fill-rule="evenodd" clip-rule="evenodd" d="M240.034 104.266a4.905 4.905 0 014 2.009l58.8 80.339a4.91 4.91 0 01.833 1.848l28.463 129.985a4.907 4.907 0 01-2.188 5.207l-87.262 54.671a4.903 4.903 0 01-2.646.749 4.909 4.909 0 01-2.645-.749l-87.262-54.671a4.907 4.907 0 01-2.188-5.207l28.451-129.985c.146-.667.43-1.297.834-1.849l58.811-80.339a4.906 4.906 0 013.999-2.008zm-4.946 19.916l-48.473 66.216 12.104 38.003 36.369-64.172v-40.047zm4.946 51.221l-37.257 65.741 23.392 73.445h27.727l23.391-73.455-37.253-65.731zm43.847 77.366l-19.686 61.82h54.721l-35.035-61.82zm26.382 71.634H261.07l-12.259 38.501 61.452-38.501zm-70.229 33.721l10.738-33.721h-21.478l10.74 33.721zm-24.164-43.535l-19.687-61.811-35.03 61.811h54.717zm-51.406-25.746l27.661-48.807-10.062-31.595-17.599 80.402zm5.342 35.56h49.189l12.262 38.5-61.451-38.5zM315.6 288.835l-27.662-48.809 10.058-31.585 17.604 80.394zm-22.157-98.437l-12.099 37.993-36.363-64.162v-40.044l48.462 66.213z" fill="#fff"/><defs><linearGradient id="paint0_linear-730083" x1="240" y1="0" x2="240" y2="701.818" gradientUnits="userSpaceOnUse"><stop stop-color="#08021E"/><stop offset="1" stop-color="#1F0777"/></linearGradient></defs></svg>

<svg width="480" height="480" viewBox="0 0 480 480" fill="none" xmlns="http://www.w3.org/2000/svg">
<mask id="mask0-502637" mask-type="alpha" maskUnits="userSpaceOnUse" x="0" y="0" width="480" height="480">
<circle cx="240" cy="240" r="240" fill="url(#paint0_linear-730083)"/>
</mask>
<g mask="url(#mask0-502637)">
<circle cx="240" cy="240" r="240" fill="#31D8A4"/>
<circle cx="240" cy="240" r="208" fill="white"/>
</g>
<circle cx="240" cy="240" r="184" fill="#0E052F"/>
<path d="M240 424C341.62 424 424 341.62 424 240C424 138.38 341.62 56 240 56C138.38 56 56 138.38 56 240C56 341.62 138.38 424 240 424Z" fill="black"/>
<path fill-rule="evenodd" clip-rule="evenodd" d="M240.034 104.266C241.584 104.253 243.084 104.977 244.034 106.275L302.834 186.614C303.237 187.165 303.521 187.795 303.667 188.462L332.13 318.447C332.573 320.47 331.697 322.554 329.942 323.654L242.68 378.325C241.868 378.834 240.949 379.081 240.034 379.074C239.119 379.081 238.201 378.833 237.389 378.325L150.127 323.654C148.372 322.554 147.496 320.471 147.939 318.447L176.39 188.462C176.536 187.795 176.82 187.165 177.224 186.613L236.035 106.274C236.985 104.977 238.485 104.253 240.034 104.266ZM235.088 124.182L186.615 190.398L198.719 228.401L235.088 164.229V124.182ZM240.034 175.403L202.777 241.144L226.169 314.589H253.896L277.287 241.134L240.034 175.403ZM283.881 252.769L264.195 314.589H318.916L283.881 252.769ZM310.263 324.403H261.07L248.811 362.904L310.263 324.403ZM240.034 358.124L250.772 324.403H229.294L240.034 358.124ZM215.87 314.589L196.183 252.778L161.153 314.589H215.87ZM164.464 288.843L192.125 240.036L182.063 208.441L164.464 288.843ZM169.806 324.403H218.995L231.257 362.903L169.806 324.403ZM315.6 288.835L287.938 240.026L297.996 208.441L315.6 288.835ZM293.443 190.398L281.344 228.391L244.981 164.229V124.185L293.443 190.398Z" fill="white"/>
<defs>
<linearGradient id="paint0_linear-730083" x1="240" y1="0" x2="240" y2="701.818" gradientUnits="userSpaceOnUse">
<stop stop-color="#08021E"/>
<stop offset="1" stop-color="#1F0777"/>
</linearGradient>
</defs>
</svg>
